X:1
T:Carton, CM
T:Carton, CM
T:Thomas Augustine Geary (1775-1801)
T:Public Domain Courtesy of the Cyber Hymnal™
C:Thomas Augustine Geary (1775-1801)
Z:Public Domain
Z:Courtesy of the Cyber Hymnal™
%%score ( 1 2 ) ( 3 4 )
L:1/8
Q:1/4=120
M:3/4
K:D
V:1 treble 
V:2 treble 
V:3 bass 
V:4 bass 
V:1
 D2 | [DF]4 D2 | [EA]4 [DF]2 | B4 [Ec]2 | [Fd]4 [Fd]2 | (c2 B2) [EA]2 | ([FB]2 [EA]2) [D^G]2 | %7
 [CA]4 [EA]2 | [Fd]4 [Ac]2 | (c2 B2) [DA]2 | (A2 G2) [DF]2 | ([DF]2 [CE]2) [CA]2 | d4 [FA]2 | %13
 ([EG]2 [DF]2) [CE]2 | D4 |] %15
V:2
 D2 | x4 D2 | x6 | (D2 G2) x2 | x6 | E4 x2 | x6 | x6 | x6 | G4 x2 | C4 x2 | x6 | (D2 F2) x2 | x6 | %14
 D4 |] %15
V:3
 [D,F,]2 | [D,A,]4 [D,F,]2 | (E,2 A,2) [D,A,]2 | B,4 A,2 | [D,A,]4 [D,A,]2 | %5
 ([A,,A,]2 [B,,^G,]2) [C,A,]2 | ([D,D]2 [E,C]2) [E,B,]2 | [A,,A,]4 [A,C]2 | [D,D]4 [E,D]2 | %9
 [G,D]4 [F,D]2 | [E,A,]4 [D,A,]2 | A,4 [G,A,]2 | A,4 (D=C) | ([G,B,]2 A,2) [A,,G,]2 | [D,F,]4 |] %15
V:4
 x2 | x6 | C,4 x2 | (G,2 E,2) A,2 | x6 | x6 | x6 | x6 | x6 | x6 | x6 | A,4 x2 | (F,2 D,2) F,2 | %13
 x2 A,2 x2 | x4 |] %15

